X:340
T:El Cristu de Cands
R:Xiraldilla
C:Tradicional
S:Msica Tradicional Asturiana, (C) Tello & Tito. Asturies, 2001.
S:http://pagina.de/MusTradAst <telloytito@asturies.org>
A:Asturies
O:Cands
Z:Les cuarenta principales
M:2/4
L:1/8
Q:1/4=116
K:C
G
|: GF/E/ FA|G E2 G|GF/E/ FA|G3 G|
|GF/E/ FF|EC EE|DB, DD|C3 G|
|GF/E/ FF|EC EE|DB, DD|[1 C3 G :|[2 C4-|C z3||
